web/public/images/type.svg

<svg viewBox="0 0 1000 196" fill="none" xmlns="http://www.w3.org/2000/svg">
<path d="M30.2833 72.89H40.0521C49.6255 72.89 56.6916 71.2876 61.2504 68.083C65.8091 64.8783 68.0885 59.8424 68.0885 52.9752C68.0885 46.1735 65.744 41.3337 61.055 38.4561C56.4311 35.5784 49.2347 34.1396 39.4659 34.1396H30.2833V72.89ZM30.2833 97.6117V152.647H0V9.22161H41.6151C61.0224 9.22161 75.3826 12.786 84.6955 19.9148C94.0084 26.9781 98.6649 37.7367 98.6649 52.1904C98.6649 60.6272 96.3529 68.1484 91.729 74.7539C87.1051 81.2941 80.56 86.4281 72.0937 90.156C93.5851 122.399 107.587 143.229 114.1 152.647H80.4949L46.4018 97.6117H30.2833Z" fill="black"/>
<path d="M157.875 62.1968C151.558 62.1968 146.608 64.2243 143.026 68.2792C139.444 72.2686 137.393 77.9586 136.872 85.3489H178.682C178.552 77.9586 176.631 72.2686 172.919 68.2792C169.207 64.2243 164.192 62.1968 157.875 62.1968ZM162.075 154.609C144.492 154.609 130.75 149.737 120.851 139.992C110.952 130.247 106.003 116.447 106.003 98.5927C106.003 80.2149 110.561 66.0228 119.679 56.0164C128.862 45.9445 141.528 40.9086 157.679 40.9086C173.114 40.9086 185.13 45.3232 193.726 54.1524C202.323 62.9816 206.621 75.179 206.621 90.7446V105.264H136.188C136.514 113.766 139.021 120.404 143.71 125.178C148.399 129.953 154.977 132.34 163.443 132.34C170.021 132.34 176.24 131.653 182.101 130.28C187.963 128.906 194.085 126.715 200.467 123.707V146.859C195.257 149.475 189.689 151.404 183.762 152.647C177.836 153.955 170.607 154.609 162.075 154.609Z" fill="black"/>
<path d="M257.427 154.609C244.597 154.609 234.503 149.606 227.143 139.599C219.849 129.593 216.202 115.728 216.202 98.0041C216.202 80.0187 219.915 66.0228 227.339 56.0164C234.828 45.9445 245.118 40.9086 258.208 40.9086C271.95 40.9086 282.435 46.2716 289.664 56.9974H290.641C289.143 48.8222 288.394 41.5299 288.394 35.1206V0H318.286V152.647H295.427L289.664 138.422H288.394C281.621 149.214 271.298 154.609 257.427 154.609ZM267.879 130.77C275.499 130.77 281.067 128.547 284.584 124.099C288.166 119.652 290.12 112.098 290.445 101.438V98.2003C290.445 86.4281 288.622 77.9913 284.975 72.89C281.393 67.7886 275.532 65.238 267.391 65.238C260.748 65.238 255.571 68.083 251.859 73.7729C248.212 79.3974 246.388 87.6053 246.388 98.3965C246.388 109.188 248.244 117.298 251.956 122.726C255.668 128.089 260.976 130.77 267.879 130.77Z" fill="black"/>
<path d="M431.221 152.647L422.82 114.289L411.488 65.8266H410.805L390.876 152.647H358.835L327.77 42.9688H357.467L370.069 91.5294C372.088 100.228 374.139 112.229 376.223 127.533H376.809C377.07 122.562 378.209 114.682 380.228 103.89L381.791 95.5516L395.272 42.9688H428.095L440.893 95.5516C441.153 96.9904 441.544 99.116 442.065 101.928C442.651 104.74 443.205 107.749 443.726 110.954C444.247 114.093 444.702 117.199 445.093 120.273C445.549 123.282 445.81 125.702 445.875 127.533H446.461C447.047 122.824 448.089 116.382 449.587 108.207C451.085 99.9662 452.159 94.4071 452.811 91.5294L465.901 42.9688H495.109L463.654 152.647H431.221Z" fill="black"/>
<path d="M528.527 97.6117C528.527 108.468 530.285 116.676 533.802 122.235C537.384 127.795 543.18 130.574 551.19 130.574C559.135 130.574 564.834 127.827 568.286 122.333C571.802 116.774 573.561 108.534 573.561 97.6117C573.561 86.7551 571.802 78.6126 568.286 73.1843C564.769 67.7559 559.005 65.0418 550.995 65.0418C543.049 65.0418 537.318 67.7559 533.802 73.1843C530.285 78.5472 528.527 86.6897 528.527 97.6117ZM604.039 97.6117C604.039 115.466 599.35 129.43 589.972 139.501C580.594 149.573 567.537 154.609 550.799 154.609C540.314 154.609 531.066 152.32 523.056 147.742C515.046 143.098 508.891 136.46 504.593 127.827C500.295 119.194 498.146 109.122 498.146 97.6117C498.146 79.6917 502.802 65.7612 512.115 55.8202C521.428 45.8791 534.518 40.9086 551.385 40.9086C561.871 40.9086 571.118 43.1977 579.129 47.7758C587.139 52.3539 593.294 58.9267 597.592 67.4943C601.89 76.0619 604.039 86.1011 604.039 97.6117Z" fill="black"/>
<path d="M644.392 97.6117C644.392 108.468 646.151 116.676 649.667 122.235C653.249 127.795 659.046 130.574 667.056 130.574C675.001 130.574 680.7 127.827 684.151 122.333C687.668 116.774 689.426 108.534 689.426 97.6117C689.426 86.7551 687.668 78.6126 684.151 73.1843C680.635 67.7559 674.871 65.0418 666.86 65.0418C658.915 65.0418 653.184 67.7559 649.667 73.1843C646.151 78.5472 644.392 86.6897 644.392 97.6117ZM719.905 97.6117C719.905 115.466 715.216 129.43 705.838 139.501C696.46 149.573 683.402 154.609 666.665 154.609C656.18 154.609 646.932 152.32 638.922 147.742C630.911 143.098 624.757 136.46 620.459 127.827C616.16 119.194 614.011 109.122 614.011 97.6117C614.011 79.6917 618.668 65.7612 627.981 55.8202C637.294 45.8791 650.384 40.9086 667.251 40.9086C677.736 40.9086 686.984 43.1977 694.995 47.7758C703.005 52.3539 709.159 58.9267 713.458 67.4943C717.756 76.0619 719.905 86.1011 719.905 97.6117Z" fill="black"/>
<path d="M771.101 154.609C758.272 154.609 748.177 149.606 740.818 139.599C733.524 129.593 729.877 115.728 729.877 98.0041C729.877 80.0187 733.589 66.0228 741.014 56.0164C748.503 45.9445 758.793 40.9086 771.883 40.9086C785.624 40.9086 796.11 46.2716 803.338 56.9974H804.315C802.817 48.8222 802.069 41.5299 802.069 35.1206V0H831.961V152.647H809.102L803.338 138.422H802.069C795.295 149.214 784.973 154.609 771.101 154.609ZM781.554 130.77C789.174 130.77 794.742 128.547 798.259 124.099C801.841 119.652 803.794 112.098 804.12 101.438V98.2003C804.12 86.4281 802.296 77.9913 798.649 72.89C795.068 67.7886 789.206 65.238 781.066 65.238C774.423 65.238 769.245 68.083 765.533 73.7729C761.886 79.3974 760.063 87.6053 760.063 98.3965C760.063 109.188 761.919 117.298 765.631 122.726C769.343 128.089 774.651 130.77 781.554 130.77Z" fill="black"/>
<path d="M842.519 194.831C835.681 194.831 829.722 194.112 824.642 192.673V167.362C829.852 168.67 834.606 169.324 838.905 169.324C845.547 169.324 850.302 167.232 853.167 163.046C856.033 158.926 857.465 152.451 857.465 143.622V9.22161H887.749V143.425C887.749 160.168 883.939 172.922 876.319 181.685C868.7 190.449 857.433 194.831 842.519 194.831Z" fill="black"/>
<path d="M1000 112.818C1000 125.767 995.344 135.97 986.031 143.425C976.783 150.881 963.888 154.609 947.346 154.609C932.107 154.609 918.626 151.731 906.903 145.976V117.723C916.542 122.039 924.683 125.08 931.325 126.846C938.033 128.612 944.155 129.495 949.691 129.495C956.333 129.495 961.413 128.22 964.93 125.669C968.512 123.118 970.303 119.325 970.303 114.289C970.303 111.477 969.521 108.992 967.958 106.833C966.395 104.61 964.083 102.484 961.022 100.457C958.027 98.4292 951.872 95.1919 942.559 90.7446C933.833 86.6243 927.288 82.6675 922.924 78.8742C918.561 75.0809 915.077 70.6663 912.472 65.6304C909.867 60.5945 908.564 54.7083 908.564 47.972C908.564 35.2841 912.83 25.3104 921.361 18.0508C929.958 10.7912 941.81 7.16146 956.92 7.16146C964.344 7.16146 971.41 8.04438 978.118 9.81022C984.891 11.5761 991.957 14.0613 999.316 17.266L989.547 40.9086C981.928 37.7694 975.611 35.5784 970.596 34.3358C965.646 33.0932 960.762 32.4718 955.943 32.4718C950.212 32.4718 945.816 33.8126 942.755 36.494C939.694 39.1755 938.163 42.6745 938.163 46.991C938.163 49.6724 938.782 52.0269 940.02 54.0543C941.257 56.0164 943.211 57.9457 945.881 59.8424C948.616 61.6736 955.031 65.0091 965.125 69.8488C978.476 76.2581 987.626 82.7002 992.576 89.1749C997.525 95.5843 1000 103.465 1000 112.818Z" fill="black"/>
</svg>

<svg fill="none" viewBox="0 0 1000 196" xmlns="http://www.w3.org/2000/svg"><g fill="#000"><path d="M30.283 72.89h9.77c9.573 0 16.639-1.602 21.197-4.807 4.56-3.205 6.838-8.24 6.838-15.108 0-6.802-2.344-11.641-7.033-14.519-4.624-2.878-11.82-4.316-21.59-4.316h-9.182zm0 24.722v55.035H0V9.222h41.615c19.407 0 33.768 3.564 43.08 10.693 9.313 7.063 13.97 17.822 13.97 32.275 0 8.437-2.312 15.958-6.936 22.564-4.624 6.54-11.169 11.674-19.635 15.402 21.491 32.243 35.493 53.073 42.006 62.491H80.495L46.402 97.612z"/><path d="M157.875 62.197c-6.317 0-11.267 2.027-14.849 6.082-3.582 3.99-5.633 9.68-6.154 17.07h41.81c-.13-7.39-2.051-13.08-5.763-17.07-3.712-4.055-8.727-6.082-15.044-6.082zm4.2 92.412c-17.583 0-31.325-4.872-41.224-14.617s-14.848-23.545-14.848-41.4c0-18.377 4.558-32.57 13.676-42.576 9.183-10.071 21.849-15.107 38-15.107 15.435 0 27.451 4.414 36.047 13.243 8.597 8.83 12.895 21.027 12.895 36.593v14.519h-70.433c.326 8.502 2.833 15.14 7.522 19.914 4.689 4.775 11.267 7.162 19.733 7.162 6.578 0 12.797-.687 18.658-2.06 5.862-1.374 11.984-3.565 18.366-6.573v23.152c-5.21 2.616-10.778 4.545-16.705 5.788-5.926 1.308-13.155 1.962-21.687 1.962zM257.427 154.609c-12.83 0-22.924-5.003-30.284-15.01-7.294-10.006-10.941-23.871-10.941-41.595 0-17.985 3.713-31.981 11.137-41.988 7.489-10.071 17.779-15.107 30.869-15.107 13.742 0 24.227 5.363 31.456 16.088h.977c-1.498-8.175-2.247-15.467-2.247-21.876V0h29.892v152.647h-22.859l-5.763-14.225h-1.27c-6.773 10.792-17.096 16.187-30.967 16.187zm10.452-23.839c7.62 0 13.188-2.223 16.705-6.671 3.582-4.447 5.536-12.001 5.861-22.661V98.2c0-11.772-1.823-20.209-5.47-25.31-3.582-5.101-9.443-7.652-17.584-7.652-6.643 0-11.82 2.845-15.532 8.535-3.647 5.624-5.471 13.832-5.471 24.623 0 10.792 1.856 18.902 5.568 24.33 3.712 5.363 9.02 8.044 15.923 8.044zM431.221 152.647l-8.401-38.358-11.332-48.462h-.683l-19.929 86.82h-32.041L327.77 42.969h29.697l12.602 48.56c2.019 8.699 4.07 20.7 6.154 36.004h.586c.261-4.971 1.4-12.851 3.419-23.643l1.563-8.338 13.481-52.583h32.823l12.798 52.583c.26 1.438.651 3.564 1.172 6.376.586 2.812 1.14 5.821 1.661 9.026a248.11 248.11 0 0 1 1.367 9.319c.456 3.009.717 5.429.782 7.26h.586c.586-4.709 1.628-11.151 3.126-19.326 1.498-8.24 2.572-13.8 3.224-16.678l13.09-48.56h29.208l-31.455 109.678zM528.527 97.612c0 10.856 1.758 19.064 5.275 24.623 3.582 5.56 9.378 8.339 17.388 8.339 7.945 0 13.644-2.747 17.096-8.241 3.516-5.559 5.275-13.799 5.275-24.721 0-10.857-1.759-19-5.275-24.428-3.517-5.428-9.281-8.142-17.291-8.142-7.946 0-13.677 2.714-17.193 8.142-3.517 5.363-5.275 13.506-5.275 24.428zm75.512 0c0 17.854-4.689 31.818-14.067 41.889-9.378 10.072-22.435 15.108-39.173 15.108-10.485 0-19.733-2.289-27.743-6.867-8.01-4.644-14.165-11.282-18.463-19.915s-6.447-18.705-6.447-30.215c0-17.92 4.656-31.85 13.969-41.792 9.313-9.94 22.403-14.911 39.27-14.911 10.486 0 19.733 2.289 27.744 6.867 8.01 4.578 14.165 11.15 18.463 19.718s6.447 18.607 6.447 30.118zM644.392 97.612c0 10.856 1.759 19.064 5.275 24.623 3.582 5.56 9.379 8.339 17.389 8.339 7.945 0 13.644-2.747 17.095-8.241 3.517-5.559 5.275-13.799 5.275-24.721 0-10.857-1.758-19-5.275-24.428-3.516-5.428-9.28-8.142-17.291-8.142-7.945 0-13.676 2.714-17.193 8.142-3.516 5.363-5.275 13.506-5.275 24.428zm75.513 0c0 17.854-4.689 31.818-14.067 41.889-9.378 10.072-22.436 15.108-39.173 15.108-10.485 0-19.733-2.289-27.743-6.867-8.011-4.644-14.165-11.282-18.463-19.915-4.299-8.633-6.448-18.705-6.448-30.215 0-17.92 4.657-31.85 13.97-41.792 9.313-9.94 22.403-14.911 39.27-14.911 10.485 0 19.733 2.289 27.744 6.867 8.01 4.578 14.164 11.15 18.463 19.718 4.298 8.568 6.447 18.607 6.447 30.118zM771.101 154.609c-12.829 0-22.924-5.003-30.283-15.01-7.294-10.006-10.941-23.871-10.941-41.595 0-17.985 3.712-31.981 11.137-41.988 7.489-10.071 17.779-15.107 30.869-15.107 13.741 0 24.227 5.363 31.455 16.088h.977c-1.498-8.175-2.246-15.467-2.246-21.876V0h29.892v152.647h-22.859l-5.764-14.225h-1.269c-6.774 10.792-17.096 16.187-30.968 16.187zm10.453-23.839c7.62 0 13.188-2.223 16.705-6.671 3.582-4.447 5.535-12.001 5.861-22.661V98.2c0-11.772-1.824-20.209-5.471-25.31-3.581-5.101-9.443-7.652-17.583-7.652-6.643 0-11.821 2.845-15.533 8.535-3.647 5.624-5.47 13.832-5.47 24.623 0 10.792 1.856 18.902 5.568 24.33 3.712 5.363 9.02 8.044 15.923 8.044z"/><path d="M842.519 194.831c-6.838 0-12.797-.719-17.877-2.158v-25.311c5.21 1.308 9.964 1.962 14.263 1.962 6.642 0 11.397-2.092 14.262-6.278 2.866-4.12 4.298-10.595 4.298-19.424V9.222h30.284v134.203c0 16.743-3.81 29.497-11.43 38.26-7.619 8.764-18.886 13.146-33.8 13.146zM1000 112.818c0 12.949-4.656 23.152-13.969 30.607-9.248 7.456-22.143 11.184-38.685 11.184-15.239 0-28.72-2.878-40.443-8.633v-28.253c9.639 4.316 17.78 7.357 24.422 9.123 6.708 1.766 12.83 2.649 18.366 2.649 6.642 0 11.722-1.275 15.239-3.826 3.582-2.551 5.373-6.344 5.373-11.38 0-2.812-.782-5.297-2.345-7.456-1.563-2.223-3.875-4.349-6.936-6.376-2.995-2.028-9.15-5.265-18.463-9.712-8.726-4.12-15.271-8.077-19.635-11.87-4.363-3.794-7.847-8.209-10.452-13.245s-3.908-10.922-3.908-17.658c0-12.688 4.266-22.662 12.797-29.921 8.597-7.26 20.449-10.89 35.559-10.89 7.424 0 14.49.883 21.198 2.65 6.773 1.765 13.839 4.25 21.198 7.455l-9.769 23.643c-7.619-3.14-13.936-5.33-18.951-6.573-4.95-1.243-9.834-1.864-14.653-1.864-5.731 0-10.127 1.34-13.188 4.022-3.061 2.682-4.592 6.18-4.592 10.497 0 2.681.619 5.036 1.857 7.063 1.237 1.962 3.191 3.892 5.861 5.788 2.735 1.832 9.15 5.167 19.244 10.007 13.351 6.41 22.501 12.851 27.451 19.326 4.949 6.41 7.424 14.29 7.424 23.643z"/></g></svg>
